X:1
T:Blest, Blest Forever
T:John Robson Sweney
T:Blest, Blest Forever
T:Public Domain
T:Public Domain
C:John Robson Sweney
Z:Public Domain
%%score 1 ( 2 3 )
L:1/8
M:3/4
K:Db
V:1 treble 
V:2 bass 
V:3 bass 
V:1
 [DF]2 [DF]2 [DF]2 | [FA]3 [DF] [DF]2 | [CE]2 [DF]2 [EG]2 | [EG]2 [DF]4 | [DF]2 [DF]2 [DF]2 | %5
w: 1.~On- ly a|lit- tle while,|sow- ing and|reap- ing,|On- ly a|
w: 2.~On- ly a|lit- tle while,|heart- break and|sor- row,|Dark though the|
w: 3.~On- ly a|lit- tle while,|sha- dow and|sad- ness,|Then in e-|
 [DB]3 [DF] [DF]2 | [E=G]2 [EA]2 [DB]2 | [DB]2 [CA]4 | [EA]2 [GB]2 [Gc]2 | [Fd]3 [FA] [DF]2 | %10
w: lit- tle while,|our vi- gil|keep- ing;|Then we shall|ga- ther home,|
w: night may be,|cloud- less the|mor- row;|On- ly a|lit- tle while,|
w: ter- ni- ty|sun- shine and|glad- ness;|On- ly a|lit- tle while,|
 [FA]2 [GB]2 [Ac]2 | [Ac]2 [GB]4 | [GB]2 [Ge]2 [Gd]2 | [Fd]3 [FA] [DF]2 | [EA]2 [GB]2 [GA]2 | %15
w: no more to|sev- er,|Clasped in e-|ter- nal love,|blest, blest for-|
w: Earth ties to|sev- er,|Then in our|Fa- ther land,|blest, blest for-|
w: then o’er the|riv- er,|Home, rest and|vic- tor palm,|life, joy for-|
 [FA]2 [Fd]4 ||"^Refrain" [Fd]6 | [DF]4 [FA]2 | ([FA]4 [=E=G]2) | [EG]6 | [Ec]6 | [CE]4 [EG]2 | %22
w: ev- er.|||||||
w: ev- er.|Blest,|blest for-|ev- *|er,|No|more to|
w: ev- er.|||||||
 [EG]6 | [DF]6 | [FA]6 | [Af]4 [Ad]2 | [Gd]4 [GB]2 | [GB]6 | [FA]6 | [Gc]4 [GA]2 | [FA]2 [Fd]4 |] %31
w: |||||||||
w: sev-|er,|Clasped|in e-|ter- nal|love,|Blest,|blest for-|ev- er.|
w: |||||||||
V:2
 [D,A,]2 [D,A,]2 [D,A,]2 | [D,D]3 [D,A,] [D,A,]2 | [A,,A,]2 [A,,A,]2 [A,,A,]2 | [D,A,]2 [D,A,]4 | %4
 [B,,B,]2 [B,,B,]2 [B,,B,]2 | [B,,F,]3 [B,,B,] [B,,B,]2 | [E,D]2 [E,C]2 [E,=G,]2 | %7
 [A,,A,]2 [A,,E,]4 | [A,C]2 [A,D]2 [A,E]2 | [D,D]3 [D,D] [D,A,]2 | [D,D]2 [D,D]2 [F,D]2 | %11
 [G,D]2 [G,D]4 | [G,D]2 [G,B,]2 [G,B,]2 | [D,A,]3 [D,A,] [D,A,]2 | [A,C]2 [A,D]2 [A,,A,C]2 | %15
 [D,D]2 [D,A,]4 || [D,A,]6 | [D,A,]4 [D,D]2 | [A,D]6 | [A,C]6 | A,6 | [A,,A,]4 [A,,A,]2 | %22
 (A,,2 B,,2 C,2) | [D,A,]6 | [D,D]6 | [D,D]4 [F,_C]2 | [G,B,]4 [G,D]2 | [G,D]6 | [A,D]6 | %29
 [A,E]4 [A,,A,C]2 | [D,D]2 [D,A,]4 |] %31
V:3
 x6 | x6 | x6 | x6 | x6 | x6 | x6 | x6 | x6 | x6 | x6 | x6 | x6 | x6 | x6 | x6 || x6 | x6 | x6 | %19
 x6 | A,6 | x6 | A,6 | x6 | x6 | x6 | x6 | x6 | x6 | x6 | x6 |] %31

